X:1
T:Title
%%score { ( 1 3 ) | ( 2 4 5 ) }
L:1/8
M:4/4
K:Ab
V:1 treble nm="Grand Piano"
V:3 treble 
V:2 treble 
V:4 treble 
V:5 treble 
V:1
 z8[Q:1/4=100] | z4 z [A,FA][A,EG]F | E6 z2 | E3- [EA] BdcB | [CA]-[CEA-][EGA-][DFA-] [CEA]2 z2 | %5
 z4 z [Ec][EB][EA] | F6 z2 | B3 c BAGF |[M:9/8] z E2- E3- E z z |[M:4/4] [Ec]3 [DB] [CA]EFE | %10
 d3 c BEFE | e3 d c2 [EA]2 | B6[K:bass][K:treble] [EB]2 | [Ec]3 [Ec] [Fd][Ec][EB][A,EA] | %14
 [DF]6 z2 | [CEA]3 [B,EG] [DEB]3 [CEA] |[M:3/4] [CEA]6 |] %17
V:2
 z4 z2 E2 | c3 c B[K:bass]D,D,[D,A,D] | [E,A,C][D,G,]C,B,, A,,2 A,,2 | z4 z2 E2 | %4
 A,,A,,A,,A,, A,,2[K:treble] E2 | e3 e d[K:bass][A,,A,][B,,G,][C,A,] | %6
 [D,A,D][D,A,][D,A,][D,A,] [D,A,]2 [C,A,]2 | G,4 .F,2 z2 | %8
[M:9/8] [E,G,][E,G,][E,G,] [E,A,] [E,B,]2- [E,B,] z z |[M:4/4] [A,,A,]3 [A,,E,] .[A,,E,]2 z2 | %10
 [E,B,E]3 [E,A,E] .[E,G,E]2 z2 | [A,CE]3 [B,E] [A,E]2 [C,A,]2 | [G,E]6 z2 | %13
 [A,,A,]3 [A,,A,] [A,,A,][A,,A,][B,,G,]C, | z4 B,2 =D,2 | E,3 E, E,3 E, |[M:3/4] A,,6 |] %17
V:3
 x8 | x8 | z B,A,[G,D] [A,C]2 [CEA]2 | [B,G]4 z4 | .E2 z2 z4 | x8 | z DDD D2 [EA]2 | E4 =D4 | %8
[M:9/8] .E2 B, C D2- D z z |[M:4/4] x8 | x8 | x8 | z[K:bass] =D,E,F, E,_D,[K:treble] z B,, | x8 | %14
 A,4 z2 [_CFA]2 | x8 |[M:3/4] x6 |] %17
V:4
 x8 | x5[K:bass] x3 | x8 | z2 z C DB, z D | x6[K:treble] x2 | x5[K:bass] x3 | x8 | %7
 B,,3- [B,,A,] B,,-[B,,-F,][B,,-B,][B,,A,] |[M:9/8] x9 |[M:4/4] x8 | x8 | x8 | %12
 .E,2 z2 z2 .[C,G,]2 | x8 | D,6 z2 | x8 |[M:3/4] x6 |] %17
V:5
 x8 | x5[K:bass] x3 | x8 | E,4 [E,-E]2 E,2 | x6[K:treble] x2 | x5[K:bass] x3 | x8 | x8 | %8
[M:9/8] x9 |[M:4/4] x8 | x8 | x8 | x8 | x8 | x8 | x8 |[M:3/4] x6 |] %17

